packages/icons/web/instagram_large.svg

<svg width="24" height="24" viewBox="0 0 24 24" fill="none" xmlns="http://www.w3.org/2000/svg">
<path d="M12 3.8025C14.67 3.8025 14.9867 3.8125 16.0417 3.86083C18.7517 3.98417 20.0175 5.27 20.1408 7.96C20.1892 9.01417 20.1983 9.33083 20.1983 12.0008C20.1983 14.6717 20.1883 14.9875 20.1408 16.0417C20.0167 18.7292 18.7542 20.0175 16.0417 20.1408C14.9867 20.1892 14.6717 20.1992 12 20.1992C9.33 20.1992 9.01333 20.1892 7.95917 20.1408C5.2425 20.0167 3.98333 18.725 3.86 16.0408C3.81167 14.9867 3.80167 14.6708 3.80167 12C3.80167 9.33 3.8125 9.01417 3.86 7.95917C3.98417 5.27 5.24667 3.98333 7.95917 3.86C9.01417 3.8125 9.33 3.8025 12 3.8025ZM12 2C9.28417 2 8.94417 2.01167 7.8775 2.06C4.24583 2.22667 2.2275 4.24167 2.06083 7.87667C2.01167 8.94417 2 9.28417 2 12C2 14.7158 2.01167 15.0567 2.06 16.1233C2.22667 19.755 4.24167 21.7733 7.87667 21.94C8.94417 21.9883 9.28417 22 12 22C14.7158 22 15.0567 21.9883 16.1233 21.94C19.7517 21.7733 21.775 19.7583 21.9392 16.1233C21.9883 15.0567 22 14.7158 22 12C22 9.28417 21.9883 8.94417 21.94 7.8775C21.7767 4.24917 19.7592 2.2275 16.1242 2.06083C15.0567 2.01167 14.7158 2 12 2V2ZM12 6.865C9.16417 6.865 6.865 9.16417 6.865 12C6.865 14.8358 9.16417 17.1358 12 17.1358C14.8358 17.1358 17.135 14.8367 17.135 12C17.135 9.16417 14.8358 6.865 12 6.865ZM12 15.3333C10.1592 15.3333 8.66667 13.8417 8.66667 12C8.66667 10.1592 10.1592 8.66667 12 8.66667C13.8408 8.66667 15.3333 10.1592 15.3333 12C15.3333 13.8417 13.8408 15.3333 12 15.3333ZM17.3383 5.4625C16.675 5.4625 16.1375 6 16.1375 6.6625C16.1375 7.325 16.675 7.8625 17.3383 7.8625C18.0008 7.8625 18.5375 7.325 18.5375 6.6625C18.5375 6 18.0008 5.4625 17.3383 5.4625Z" fill="#212933"/>
</svg>

<svg width="24" height="24" fill="none" xmlns="http://www.w3.org/2000/svg">
    <path d="M12 3.803c2.67 0 2.987.01 4.042.058 2.71.123 3.975 1.409 4.099 4.099.048 1.054.057 1.37.057 4.04 0 2.672-.01 2.988-.057 4.042-.124 2.687-1.387 3.975-4.1 4.099-1.054.048-1.37.058-4.041.058-2.67 0-2.987-.01-4.04-.058-2.718-.124-3.977-1.416-4.1-4.1-.048-1.054-.058-1.37-.058-4.041 0-2.67.01-2.986.058-4.04.124-2.69 1.387-3.977 4.1-4.1 1.054-.047 1.37-.057 4.04-.057zM12 2c-2.716 0-3.056.012-4.122.06-3.632.167-5.65 2.182-5.817 5.817C2.01 8.944 2 9.284 2 12s.012 3.057.06 4.123c.167 3.632 2.182 5.65 5.817 5.817 1.067.048 1.407.06 4.123.06s3.057-.012 4.123-.06c3.629-.167 5.652-2.182 5.816-5.817.05-1.066.061-1.407.061-4.123s-.012-3.056-.06-4.122c-.163-3.629-2.18-5.65-5.816-5.817C15.057 2.01 14.716 2 12 2zm0 4.865a5.135 5.135 0 100 10.27 5.135 5.135 0 000-10.27zm0 8.468a3.333 3.333 0 110-6.666 3.333 3.333 0 010 6.666zm5.338-9.87a1.2 1.2 0 100 2.4 1.2 1.2 0 000-2.4z" fill="currentColor"/>
</svg>
